X:209
T:Putney Ferry. (p)1670.PLFD.209
M:6/4
L:1/4
Q:3/4=80
S:Playford, Dancing Master,4th Ed.,1670.
O:England
H:1670.
Z:Chris Partington
K:F
A|d2 e f2 g|a3 c3|d>ef e2d|c A2-A2:|
|:a|a2 a g>fg|f3-f2 e|f>ga g>fg|f3- f2 e|
f2e f2g|a2a a>gf|e2d ^c>=Bc|d3-d2:|
|:e|f>ed c e2|f>ed c e2|a>gf e g2|f3- f2 e|
f2e  f2g|a2 a a>gf|e2d ^c>=Bc|d3-d3:|
